X: 11662
Q: "Plaintive and slow."
M: 6/8
L: 1/16
K: A
c4dc c2B2 f>e | ec3A2 B4E2 |\
c4dc {c}B4f>e | ec3A2 B4E2 |\
e3fg2 gc3f2 | B2c2^d2 e4e2 |\
a2e2c2 cB3B2 | f2d2B2 AG3E2 |\


